assets/img/logo-footer.svg

<svg fill="none" height="116" viewBox="0 0 108 116" width="108" xmlns="http://www.w3.org/2000/svg" xmlns:xlink="http://www.w3.org/1999/xlink"><clipPath id="a"><path d="m0 0h108v116h-108z"/></clipPath><g clip-path="url(#a)"><path clip-rule="evenodd" d="m35.4043 18.372c2.0727-2.625 4.1663-4.9535 6.2179-6.9101.0674-.0717 6.9837-7.34031 18.4086-11.4317704.1716-.0600545.3637-.0310148.5077.0774704.1441.108486.2195.280969.199.457258-.1624 1.406442-.4808 4.147572-.4808 4.147572 2.419.26153 4.6569 1.30763 5.6475 1.82875.1297.07168.2185.19571.2411.33713.0225.14335-.0234.2886-.125.39322-.7488.78458-2.2455 2.34413-2.2481 2.34607 2.6926 2.2724 5.4984 5.2499 8.2668 8.7544 1.3093-.0911 2.5123-.2325 3.5992-.4495 1.9394-.3875 3.4651-.955 4.385-2.1174 1.2956-1.635 1.257-4.1961.2522-8.13837l-.9861-3.86862c-.0545-.21504.0207-.44169.1919-.5773.171-.13754.406-.15886.5988-.05619l3.49 1.86555c13.2501 7.08253 17.486 14.72693 15.4931 22.84983-.6086 2.4797-2.8725 4.8837-6.475 6.8636-1.5391.8466-3.3335 1.639-5.3092 2.3751l18.7361 2.2743c.484.0581.916.3235 1.177.7207.26.3991.322.8892.169 1.3367-1.948 5.742-7.5501 9.8973-14.1501 9.8973-1.2937 0-2.5493-.1608-3.747-.461 2.1965 6.5285 5.8752 19.4925 4.4068 39.2872-.0095.1298-.0832.2461-.1978.3159-.1146.0697-.2564.0813-.3817.0329l-3.8625-1.5052c-.9512 4.9031-2.6409 8.8028-3.3069 10.2208-.0583.1163-.1773.1957-.3116.2035-.1345.0097-.2637-.0504-.3387-.1589l-2.1733-3.1287-.0081-.0174c-8.4089 12.5452-26.3193 19.7422-29.5686 19.7422-3.2491 0-20.7361-7.107-29.5766-19.7248l-2.1732 3.1287c-.0752.1085-.2043.1686-.3388.1589-.1343-.0078-.2533-.0872-.3117-.2035-.666-1.418-2.3557-5.3177-3.3069-10.2208l-3.8625 1.5052c-.1253.0484-.2671.0368-.3817-.0329-.1146-.0698-.1882-.1861-.1978-.3159-1.4712-19.8335 2.2103-32.7587 4.4068-39.2872-1.1976.3002-2.4533.461-3.7469.461-6.6001 0-12.20243-4.1553-14.1500371-9.8973-.1534362-.4475-.09145487-.9376.1691191-1.3367.260574-.3972.692376-.6626 1.176788-.7207l18.73603-2.2743c-1.9765-.7361-3.7716-1.5304-5.3113-2.377-3.6012-1.9799-5.86446-4.384-6.47285-6.8617-1.99333-8.1229 2.24305-15.7673 15.49305-22.84983l3.49-1.86555c.1929-.10267.4278-.08135.5988.05619.1713.13561.2464.36226.1919.5773l-.986 3.86862c-1.0054 3.94427-1.0435 6.50527.2542 8.14027.9222 1.1624 2.4512 1.732 4.3948 2.1175 1.0838.215 2.283.3564 3.5876.4475zm35.5044 41.1393-1.1525 4.1166c-.1204.4282.0013.8912.3168 1.2031.3155.3099.7742.4223 1.1951.2905 2.0347-.647 3.6814-2.1638 4.2739-4.2754.611-2.1775-.0597-4.4131-1.5407-6.0617-.2717-.3022-.6838-.432-1.0769-.339-.3932.093-.7054.3952-.8158.7884zm-37.475-4.7172c-1.4804 1.6524-2.1443 3.888-1.5294 6.0616.5971 2.1116 2.247 3.6246 4.2828 4.2658.4215.1318.8801.0195 1.1952-.2924.3149-.3139.4356-.775.3143-1.205l-1.1617-4.1128-1.2079-4.2716c-.1112-.3933-.424-.6935-.8173-.7865-.3932-.093-.8051.0387-1.076.3409zm8.681 8.6943c.5424 2.5049 2.7335 4.2891 5.266 4.2891 3.6633.0058 8.8849.0059 12.5456.0059 2.5214 0 4.7066-1.7687 5.2633-4.2581 1.1841-6.1585 2.5388-15.6104 3.1895-23.4659.1389-1.8268-.8399-3.5529-2.4674-4.3511-2.2782-1.0538-6.1099-2.2355-11.9051-2.2355-5.9605 0-10.0199 1.2514-12.4192 2.3363-1.6388.7729-2.6421 2.4855-2.5277 4.3123.5367 7.7335 1.8114 16.9489 3.055 23.367zm23.4325 15.2035c.2587-1.3154-.0779-2.6773-.9174-3.7137-.8393-1.0364-2.0928-1.6369-3.4161-1.6369h-14.9449c-1.3435 0-2.6152.614-3.4617 1.6698-.8464 1.0558-1.1772 2.443-.9008 3.7739 1.0902 5.2363 5.6533 8.9849 10.9382 8.9849h1.7643c5.316 0 9.8934-3.797 10.9386-9.076-.001 0-.001-.0001-.0002-.002z" fill="#938876" fill-rule="evenodd"/></g></svg>

<svg width="108" height="116" viewBox="0 0 108 116" fill="none" xmlns="http://www.w3.org/2000/svg">
<g clip-path="url(#clip0_3364_2298)">
<path fill-rule="evenodd" clip-rule="evenodd" d="M35.4043 18.372C37.477 15.747 39.5706 13.4185 41.6222 11.4619C41.6896 11.3902 48.6059 4.12159 60.0308 0.0301296C60.2024 -0.0299249 60.3945 -0.000885202 60.5385 0.1076C60.6826 0.216086 60.758 0.388569 60.7375 0.564858C60.5751 1.9713 60.2567 4.71243 60.2567 4.71243C62.6757 4.97396 64.9136 6.02006 65.9042 6.54118C66.0339 6.61286 66.1227 6.73689 66.1453 6.87831C66.1678 7.02166 66.1219 7.16691 66.0203 7.27153C65.2715 8.05611 63.7748 9.61566 63.7722 9.6176C66.4648 11.89 69.2706 14.8675 72.039 18.372C73.3483 18.2809 74.5513 18.1395 75.6382 17.9225C77.5776 17.535 79.1033 16.9675 80.0232 15.8051C81.3188 14.1701 81.2802 11.609 80.2754 7.66673L79.2893 3.79811C79.2348 3.58307 79.31 3.35642 79.4812 3.22081C79.6522 3.08327 79.8872 3.06195 80.08 3.16462L83.57 5.03017C96.8201 12.1127 101.056 19.7571 99.0631 27.88C98.4545 30.3597 96.1906 32.7637 92.5881 34.7436C91.049 35.5902 89.2546 36.3826 87.2789 37.1187L106.015 39.393C106.499 39.4511 106.931 39.7165 107.192 40.1137C107.452 40.5128 107.514 41.0029 107.361 41.4504C105.413 47.1924 99.8109 51.3477 93.2109 51.3477C91.9172 51.3477 90.6616 51.1869 89.4639 50.8867C91.6604 57.4152 95.3391 70.3792 93.8707 90.1739C93.8612 90.3037 93.7875 90.42 93.6729 90.4898C93.5583 90.5595 93.4165 90.5711 93.2912 90.5227L89.4287 89.0175C88.4775 93.9206 86.7878 97.8203 86.1218 99.2383C86.0635 99.3546 85.9445 99.434 85.8102 99.4418C85.6757 99.4515 85.5465 99.3914 85.4715 99.2829L83.2982 96.1542L83.2901 96.1368C74.8812 108.682 56.9708 115.879 53.7215 115.879C50.4724 115.879 32.9854 108.772 24.1449 96.1542L21.9717 99.2829C21.8965 99.3914 21.7674 99.4515 21.6329 99.4418C21.4986 99.434 21.3796 99.3546 21.3212 99.2383C20.6552 97.8203 18.9655 93.9206 18.0143 89.0175L14.1518 90.5227C14.0265 90.5711 13.8847 90.5595 13.7701 90.4898C13.6555 90.42 13.5819 90.3037 13.5723 90.1739C12.1011 70.3404 15.7826 57.4152 17.9791 50.8867C16.7815 51.1869 15.5258 51.3477 14.2322 51.3477C7.6321 51.3477 2.02977 47.1924 0.0821629 41.4504C-0.0712733 41.0029 -0.00929197 40.5128 0.251282 40.1137C0.511856 39.7165 0.943658 39.4511 1.42807 39.393L20.1641 37.1187C18.1876 36.3826 16.3925 35.5883 14.8528 34.7417C11.2516 32.7618 8.98834 30.3577 8.37995 27.88C6.38662 19.7571 10.623 12.1127 23.873 5.03017L27.363 3.16462C27.5559 3.06195 27.7908 3.08327 27.9618 3.22081C28.1331 3.35642 28.2082 3.58307 28.1537 3.79811L27.1677 7.66673C26.1623 11.611 26.1242 14.172 27.4219 15.807C28.3441 16.9694 29.8731 17.539 31.8167 17.9245C32.9005 18.1395 34.0997 18.2809 35.4043 18.372ZM70.9087 59.5113L69.7562 63.6279C69.6358 64.0561 69.7575 64.5191 70.073 64.831C70.3885 65.1409 70.8472 65.2533 71.2681 65.1215C73.3028 64.4745 74.9495 62.9577 75.542 60.8461C76.153 58.6686 75.4823 56.433 74.0013 54.7844C73.7296 54.4822 73.3175 54.3524 72.9244 54.4454C72.5312 54.5384 72.219 54.8406 72.1086 55.2338L70.9087 59.5113ZM33.4337 54.7941C31.9533 56.4465 31.2894 58.6821 31.9043 60.8557C32.5014 62.9673 34.1513 64.4803 36.1871 65.1215C36.6086 65.2533 37.0672 65.141 37.3823 64.8291C37.6972 64.5152 37.8179 64.0541 37.6966 63.6241L36.5349 59.5113L35.327 55.2397C35.2158 54.8464 34.903 54.5462 34.5097 54.4532C34.1165 54.3602 33.7046 54.4919 33.4337 54.7941ZM42.1147 63.4884C42.6571 65.9933 44.8482 67.7775 47.3807 67.7775C51.044 67.7833 56.2656 67.7834 59.9263 67.7834C62.4477 67.7834 64.6329 66.0147 65.1896 63.5253C66.3737 57.3668 67.7284 47.9149 68.3791 40.0594C68.518 38.2326 67.5392 36.5065 65.9117 35.7083C63.6335 34.6545 59.8018 33.4728 54.0066 33.4728C48.0461 33.4728 43.9867 34.7242 41.5874 35.8091C39.9486 36.582 38.9453 38.2946 39.0597 40.1214C39.5964 47.8549 40.8711 57.0703 42.1147 63.4884ZM65.5472 78.6919C65.8059 77.3765 65.4693 76.0146 64.6298 74.9782C63.7905 73.9418 62.537 73.3413 61.2137 73.3413H46.2688C44.9253 73.3413 43.6536 73.9553 42.8071 75.0111C41.9607 76.0669 41.6299 77.4541 41.9063 78.785C42.9965 84.0213 47.5596 87.7699 52.8445 87.7699C53.4311 87.7699 54.0219 87.7699 54.6088 87.7699C59.9248 87.7699 64.5022 83.9729 65.5474 78.6939C65.5464 78.6939 65.5464 78.6938 65.5472 78.6919Z" fill="#938876"/>
</g>
<defs>
<clipPath id="clip0_3364_2298">
<rect width="108" height="116" fill="white"/>
</clipPath>
</defs>
</svg>
